src/assets/icons/weeks,fancy,08.svg

<svg width="48" height="48" viewBox="0 0 48 48" fill="none" xmlns="http://www.w3.org/2000/svg">
<rect opacity="0.2" x="4" y="6" width="40" height="40" rx="4" fill="black"/>
<path d="M23.9913 41.2784C28.585 41.2784 31.8862 38.8224 31.8961 35.5213C31.8862 32.9759 29.9274 30.8977 27.4814 30.4901V30.3509C29.6092 29.9134 31.1305 28.0739 31.1404 25.8366C31.1305 22.6847 28.1078 20.358 23.9913 20.358C19.8649 20.358 16.8422 22.6847 16.8521 25.8366C16.8422 28.0639 18.3436 29.9134 20.5112 30.3509V30.4901C18.0254 30.8977 16.0865 32.9759 16.0964 35.5213C16.0865 38.8224 19.3975 41.2784 23.9913 41.2784ZM23.9913 38.1165C21.943 38.1165 20.5708 36.9034 20.5708 35.1832C20.5708 33.4233 22.0126 32.1506 23.9913 32.1506C25.96 32.1506 27.4118 33.4233 27.4118 35.1832C27.4118 36.9134 26.0297 38.1165 23.9913 38.1165ZM23.9913 29.0185C22.2711 29.0185 21.0481 27.8949 21.0481 26.2841C21.0481 24.6932 22.2512 23.5994 23.9913 23.5994C25.7214 23.5994 26.9345 24.7031 26.9345 26.2841C26.9345 27.8949 25.7015 29.0185 23.9913 29.0185Z" fill="black"/>
<g opacity="0.4">
<path d="M10 4C10 2.89543 10.8954 2 12 2C13.1046 2 14 2.89543 14 4V8C14 9.10457 13.1046 10 12 10C10.8954 10 10 9.10457 10 8V4Z" fill="black"/>
<path d="M34 4C34 2.89543 34.8954 2 36 2C37.1046 2 38 2.89543 38 4V8C38 9.10457 37.1046 10 36 10C34.8954 10 34 9.10457 34 8V4Z" fill="black"/>
</g>
<path fill-rule="evenodd" clip-rule="evenodd" d="M10 6.00869C7.52043 6.04456 6.11466 6.22849 5.17157 7.17157C4 8.34315 4 10.2288 4 14V16H44V14C44 10.2288 44 8.34315 42.8284 7.17157C41.8853 6.22849 40.4796 6.04456 38 6.00869V8C38 9.10457 37.1046 10 36 10C34.8954 10 34 9.10457 34 8V6H14V8C14 9.10457 13.1046 10 12 10C10.8954 10 10 9.10457 10 8V6.00869Z" fill="black"/>
</svg>

<svg xmlns="http://www.w3.org/2000/svg" width="48" height="48" fill="none" viewBox="0 0 48 48">
  <rect width="40" height="40" x="4" y="6" fill="#000" opacity=".2" rx="4"/>
  <path fill="#000" d="M23.991 41.278c4.594 0 7.895-2.456 7.905-5.757-.01-2.545-1.969-4.623-4.415-5.03v-.14c2.128-.438 3.65-2.277 3.66-4.514-.01-3.152-3.033-5.479-7.15-5.479-4.126 0-7.149 2.327-7.139 5.479-.01 2.227 1.492 4.076 3.66 4.514v.14c-2.487.407-4.425 2.485-4.416 5.03-.01 3.301 3.302 5.757 7.895 5.757zm0-3.161c-2.048 0-3.42-1.214-3.42-2.934 0-1.76 1.442-3.032 3.42-3.032 1.969 0 3.42 1.272 3.42 3.032 0 1.73-1.381 2.934-3.42 2.934zm0-9.098c-1.72 0-2.943-1.124-2.943-2.735 0-1.59 1.203-2.685 2.943-2.685 1.73 0 2.944 1.104 2.944 2.685 0 1.61-1.233 2.735-2.944 2.735z"/>
  <g opacity=".4">
    <path fill="#000" d="M10 4a2 2 0 114 0v4a2 2 0 11-4 0V4zM34 4a2 2 0 114 0v4a2 2 0 11-4 0V4z"/>
  </g>
  <path fill="#000" fill-rule="evenodd" d="M10 6.009c-2.48.036-3.885.22-4.828 1.163C4 8.343 4 10.229 4 14v2h40v-2c0-3.771 0-5.657-1.172-6.828-.943-.944-2.348-1.127-4.828-1.163V8a2 2 0 11-4 0V6H14v2a2 2 0 11-4 0V6.009z" clip-rule="evenodd"/>
</svg>
